X:1
T:Liverpool -- Hornpipe
R:hornpipe
B:Cole's 1000 Fiddle Tunes
Z:Bob Puckette <bpuckette:msn.com> 2003-3-8
M:2/4
L:1/16
K:D
uA2|FDFA dfaf|gefd dcBA|GBGB FAFA|EFGA GFED|
FDFA dfaf|gefd dcBA|afdf gecA|d2d2d2:|
|:A2|vdfdf cece|BdBd BAGF|GBGB FAFA|EFGA GFED|
FDFA dfaf|gefd dcBA|afdf gecA|d2d2d2:|
